X:1
T:Title
%%score { ( 1 3 ) | 2 }
L:1/8
Q:1/4=87
M:6/8
K:Eb
V:1 treble nm="Grand Piano"
V:3 treble 
V:2 bass 
V:1
 GFE EDE | [DF][DF][DF] [DF]3 | [FA][EG][DF] [DF]3 | GFE E3 | GFE EDE | [DF][DF][DF] [DF]3 | %6
w: E.~A.~Hoffman * * * * *||||||
 [DA][G,DG][A,DF] [G,E][B,EG][A,DF] | [G,E]6 | [GB]3 z3 | [GB]3 z3 | GFE G3 | %11
w: |||||
 [CEG][A,DF][G,CE] [=B,DG]3 | [Ec]3- [Ec][CEA][EAc] | .[GB]6 | %14
w: |||
[M:13/16] [DA][G,DG][A,DF][G,E][B,EG]3/2[A,DF] |[M:3/4] [G,E]6 |] %16
w: ||
V:2
 [E,B,E][E,A,B,][E,G,B,] [E,G,B,][E,F,B,][E,G,B,] | [B,,B,][B,,B,][B,,B,] [B,,B,]3 | %2
 [B,,B,][B,,B,][B,,B,] [B,,B,]3 | [E,B,E][E,A,B,][E,G,B,] [E,G,B,]3 | %4
 [E,B,E][E,A,B,][E,G,B,] [E,G,B,][E,F,B,][E,G,B,] | [B,,B,][B,,B,][B,,B,] [B,,B,]3 | %6
 [B,,F,]B,,B,, B,,B,,B,, | E,6 | E,E,E, E,3 | E,E,E, [E,B,E]3 | [E,B,E][E,A,B,][E,G,B,] [E,B,E]3 | %11
 C,C,C, G,,3 | A,A,A, A,A,A, | E,E,E, E,[E,B,E][E,G,] |[M:13/16] [B,,F,]B,,B,,B,,B,,3/2B,, | %15
[M:3/4] E,6 |] %16
V:3
 x6 | x6 | x6 | x6 | x6 | x6 | x6 | x6 | EEE [B,EG]3 | EEE G3 | x6 | x6 | x6 | EEE EGE | %14
[M:13/16] x13/2 |[M:3/4] x6 |] %16

